X: 1
T:The Old Woman Tossed Up in a Blanket
M:6/8
C:
S:Bacon (MDT)
N:
H:abcTranscriber: Alex Boster <boster@acm.org>
A:Ilmington
O:English
R:Jig
P:${1}\over{2}$A(AB$^2$)$^4$A
%P:A.(AB2)4.A
Q:C3=100
%Q:3/8=100
K:G
P:A
L:1/16
 |: D2 | G3AB2 c2B2c2 | d4 c2 B2A2G2 | c2B2A2 d4 c2 | B2G2G2 G4 :|
P:B
L:1/16
 d2 | e2f2g2 e2f2g2 | e2f2g2 a2f2d2 | d4 d2 d2e2f2 | g4 d2 B4 A2 |
 G3AB2 c2B2c2 | e2d2c2 B2A2G2 | c2B2A2 d4 c2 | B2G2G2 G4 |]
